X:1
T:A-Nice (finto inno)
T:Velthur Tognoni 9 Gennaio 2007
T:A-Nice (finto inno)
T:[Canóne infinito]
C:Velthur Tognoni
C:9 Gennaio 2007
%%score [ 1 2 ]
L:1/8
M:6/4
K:C
V:1 treble nm="Femmine" snm="F."
V:2 bass nm="Maschii" snm="M."
V:1
"^I coristi, maschii e femmine in ugual numero, eseguano il brano: le femmine sparse nella sala, messe a quattro zampe, i maschii in ginocchioni, ognuno dietro ad una di esse.""^More ferarum""^More ferarum" C2 C2 D2 E2 G4 | %1
w: Cas- so xe cas- so,|
 F2 E2 DC D2 G4 |: c2 B2 A2 G2 E4 | A2 G2 FE D2 B,4 | A,B,CD ^D2 E6 | FGEFDC B,2 G,2 F2 | %6
w: bu- so no ga oc- ci.|Cas- so xe cas- so,|bu- so no ga oc- ci.|Cas _ so xe cas- so,|bu _ so _ no ga oc- ci. Ah,|
 E2 E2 ^F2 G2 c4 | A2 c2 BG FD C4 | C2 C2 D2 E2 G4 | %9
w: cas- so xe cas- so,|bu- so no ga oc _ ci.|Cas- so xe cas- so,|
 F2 E2"^(Ripetere secondo la necessità e la voglia)" DC D2"^Ad libid-um." G4 :| %10
w: bu- so no ga oc- ci!|
V:2
 z12 | z12 |: C,2 C,2 D,2 E,2 G,4 | F,2 E,2 D,C, D,2 G,4 | C2 B,2 A,2 G,2 E,4 | %5
w: ||Bu- so xe bu- so,|cas- so no ga oc- ci.|Bu- so xe bu- so,|
 A,2 G,2 F,E, D,2 B,,4 | A,,B,,C,D, ^D,2 E,6 | F,G,E,F,D,C, B,,2 G,,2 F,2 | E,2 E,2 ^F,2 G,2 C4 | %9
w: cas- so no ga oc- ci.|Bu _ so xe bu- so,|cas _ so _ no ga oc- ci. Ah,|bu- so xe bu- so,|
 A,2 C2 B,G, F,D, C,4 :| %10
w: cas- so no ga oc _ ci!|

